X: 1
T: The Humours Of Ballyloughlin
R: jig
M: 6/8
L: 1/8
K: Dmix
|:ABA AGE|GED D2 B|cBc ded|cAG FED|
ABA AGE|~G3 cGE|DED DFA|1 DED D2 A:|2 DED D2 B||
|:~c3 cBc|cAG AB^c|~d3 ded|dAF DFA|
cBc dcB|cAG FGE|DED DFA|1 DED D2 B:|2 DED D2 e||
|:fdd gdd|fdd gdd|^cde ged|^cde ~g3|
fdd gdd|fdd ged|^cde gag|1 ed^c d2 e:|2 ed^c d^cB||
|:AFD ABG|~F3 GED|~E3 EFG|~E3 EFG|
ABA dAG|~F3 GEA|DED DFA|1 DED D2 A:|2 DED D3||


Tune 210	Setting 25783

